img/insurance__risks.svg

<svg width="31" height="31" viewBox="0 0 31 31" fill="none" xmlns="http://www.w3.org/2000/svg">
<g clip-path="url(#clip0)">
<path d="M27.1907 3.08124C19.7762 4.81781 16.0159 0.720352 14.804 -1C13.5921 0.717878 9.83239 4.8154 2.41737 3.08176C1.83965 5.83878 -0.161977 19.4535 14.804 25.9958C29.77 19.4535 27.7684 5.83878 27.1907 3.08124ZM8.45807 20.0243C8.36253 20.1129 8.23576 20.1599 8.10554 20.1549C7.97531 20.15 7.85251 20.0934 7.76398 19.9979C5.55581 17.6057 4.0561 14.6467 3.43236 11.4515C2.99096 9.24751 2.89657 6.98814 3.15259 4.75506C3.16766 4.62328 3.23547 4.50324 3.3405 4.42225C3.44553 4.34126 3.57886 4.30623 3.71018 4.3251C4.43297 4.43099 5.16243 4.48512 5.89293 4.48708C9.10908 4.55828 12.2098 3.28768 14.4511 0.980053C14.6474 0.788628 14.9605 0.788628 15.1569 0.980053C16.4582 2.33544 18.0781 3.34353 19.8689 3.91228C20.0389 3.96319 20.1682 4.10187 20.2071 4.27506C20.2459 4.44825 20.1883 4.62886 20.0563 4.74752C19.9242 4.86619 19.7385 4.90432 19.5704 4.84732C17.7849 4.28133 16.1537 3.31155 14.8035 2.01328C12.4053 4.29467 9.20312 5.53663 5.89385 5.46876C5.28696 5.46767 4.68065 5.43212 4.07779 5.36224C3.89948 7.33142 4.00629 9.31601 4.39489 11.2547C4.98297 14.2737 6.39887 17.0698 8.48453 19.3304C8.57311 19.4259 8.6201 19.5527 8.61516 19.6829C8.61021 19.8132 8.55367 19.9358 8.45807 20.0243ZM16.7767 17.2099H18.74C19.0111 17.2099 19.2308 17.4296 19.2308 17.7007C19.2308 17.9718 19.0111 18.1915 18.74 18.1915H16.7767C16.5056 18.1915 16.2859 17.9718 16.2859 17.7007C16.2859 17.4296 16.5056 17.2099 16.7767 17.2099ZM12.7062 15.5936C12.5146 15.7852 12.2039 15.7852 12.0122 15.5936L10.5397 14.1211C10.3537 13.9285 10.3563 13.6223 10.5457 13.433C10.735 13.2437 11.0412 13.241 11.2337 13.427L12.3592 14.5525L18.393 8.51873C18.5856 8.33272 18.8918 8.33536 19.0811 8.52472C19.2704 8.71407 19.2731 9.02019 19.087 9.21277L12.7062 15.5936ZM10.3958 17.7008C10.3958 17.4297 10.6156 17.2099 10.8867 17.2099H14.8133C15.0844 17.2099 15.3042 17.4297 15.3042 17.7008C15.3042 17.9718 15.0844 18.1916 14.8133 18.1916H10.8867C10.6156 18.1916 10.3958 17.9718 10.3958 17.7008ZM15.0097 24.8262C14.8784 24.8873 14.7268 24.8873 14.5955 24.8262C13.4683 24.3054 12.3818 23.7008 11.3451 23.0175C11.1934 22.923 11.1049 22.7536 11.1142 22.575C11.1235 22.3965 11.2292 22.2371 11.3901 22.1591C11.5509 22.081 11.7415 22.0966 11.8875 22.1998C12.8193 22.8137 13.7933 23.3611 14.8021 23.8381C25.4355 18.7708 25.944 9.58486 25.543 5.36022C24.9356 5.43109 24.3247 5.46715 23.7132 5.46819C23.4421 5.46819 23.2224 5.24846 23.2224 4.97737C23.2224 4.70628 23.4421 4.48656 23.7132 4.48656C24.4473 4.4846 25.1804 4.42996 25.9067 4.32309C26.0376 4.30399 26.1706 4.33862 26.2757 4.41897C26.3808 4.49938 26.449 4.61874 26.4648 4.75011C26.9718 8.94674 26.8677 19.3033 15.0097 24.8262Z" fill="#304BAB"/>
<path d="M4.92776 22.5072H3.94613V21.5255C3.94613 21.2544 3.7264 21.0347 3.45531 21.0347C3.18423 21.0347 2.9645 21.2544 2.9645 21.5255V22.5072H1.98276C1.71167 22.5072 1.49194 22.7269 1.49194 22.998C1.49194 23.2691 1.71167 23.4888 1.98276 23.4888H2.96444V24.4705C2.96444 24.7416 3.18423 24.9613 3.45526 24.9613C3.72629 24.9613 3.94607 24.7416 3.94607 24.4705V23.4888H4.92776C5.19885 23.4888 5.41857 23.2691 5.41857 22.998C5.41857 22.7269 5.19885 22.5072 4.92776 22.5072Z" fill="#304BAB"/>
<path d="M28.9785 24.9613H27.9969V23.9796C27.9969 23.7085 27.7771 23.4888 27.506 23.4888C27.2349 23.4888 27.0152 23.7086 27.0152 23.9796V24.9613H26.0335C25.7625 24.9613 25.5427 25.181 25.5427 25.4521C25.5427 25.7232 25.7625 25.9429 26.0335 25.9429H27.0152V26.9246C27.0152 27.1957 27.235 27.4154 27.506 27.4154C27.7771 27.4154 27.9969 27.1957 27.9969 26.9246V25.943H28.9785C29.2496 25.943 29.4694 25.7232 29.4694 25.4521C29.4694 25.1811 29.2496 24.9613 28.9785 24.9613Z" fill="#304BAB"/>
<path d="M25.0518 -0.0713539H25.5427V0.41946C25.5427 0.69055 25.7624 0.910275 26.0335 0.910275C26.3046 0.910275 26.5244 0.690607 26.5244 0.419518V-0.0712965H27.0152C27.2863 -0.0712965 27.506 -0.291078 27.506 -0.562111C27.506 -0.833143 27.2863 -1.05292 27.0152 -1.05292H26.5244V-1.54385C26.5244 -1.81494 26.3046 -2.03467 26.0335 -2.03467C25.7624 -2.03467 25.5427 -1.81494 25.5427 -1.54385V-1.05304H25.0518C24.7808 -1.05304 24.561 -0.833315 24.561 -0.562225C24.561 -0.291136 24.7808 -0.0713539 25.0518 -0.0713539Z" fill="#304BAB"/>
</g>
<defs>
<clipPath id="clip0">
<rect width="31" height="31" fill="white"/>
</clipPath>
</defs>
</svg>

<svg width="31" height="31" viewBox="0 0 31 31" fill="none" xmlns="http://www.w3.org/2000/svg"><g clip-path="url(#clip0)" fill="#304BAB"><path d="M27.19 3.081C19.777 4.818 16.017.721 14.805-1 13.592.718 9.832 4.815 2.417 3.082 1.84 5.839-.162 19.453 14.804 25.996 29.77 19.453 27.768 5.839 27.191 3.08zM8.459 20.024a.49.49 0 01-.694-.026 17.56 17.56 0 01-4.332-8.547 21.582 21.582 0 01-.28-6.696.49.49 0 01.558-.43c.723.106 1.452.16 2.183.162 3.216.071 6.317-1.2 8.558-3.507a.506.506 0 01.706 0 11.255 11.255 0 004.712 2.932.491.491 0 11-.299.935 12.194 12.194 0 01-4.767-2.834 12.553 12.553 0 01-8.91 3.456 16.022 16.022 0 01-1.815-.107 20.551 20.551 0 00.317 5.893 16.586 16.586 0 004.09 8.075.491.491 0 01-.027.694zm8.319-2.814h1.963a.49.49 0 110 .982h-1.963a.49.49 0 110-.982zm-4.07-1.616a.49.49 0 01-.695 0L10.54 14.12a.49.49 0 01.694-.694l1.125 1.126 6.034-6.034a.49.49 0 01.694.694l-6.38 6.38zM10.395 17.7c0-.271.22-.491.49-.491h3.927a.49.49 0 010 .982h-3.926a.49.49 0 01-.491-.491zm4.614 7.125a.49.49 0 01-.415 0 24.831 24.831 0 01-3.25-1.809.491.491 0 11.542-.817 23.753 23.753 0 002.915 1.638C25.436 18.771 25.944 9.585 25.543 5.36c-.607.071-1.218.107-1.83.108a.49.49 0 110-.981 15.35 15.35 0 002.194-.164.49.49 0 01.558.427c.507 4.197.403 14.553-11.455 20.076zM4.928 22.507h-.982v-.982a.49.49 0 10-.982 0v.982h-.981a.49.49 0 100 .982h.981v.982a.49.49 0 00.982 0v-.982h.982a.49.49 0 100-.982zm24.051 2.454h-.982v-.981a.49.49 0 00-.982 0v.981h-.982a.49.49 0 000 .982h.982v.982a.49.49 0 00.982 0v-.982h.982a.49.49 0 000-.982zM25.052-.071h.49v.49a.49.49 0 10.982 0v-.49h.491a.49.49 0 000-.982h-.49v-.49a.49.49 0 00-.982 0v.49h-.491a.49.49 0 000 .982z"/></g><defs><clipPath id="clip0"><path fill="#fff" d="M0 0h31v31H0z"/></clipPath></defs></svg>
